X:1
T:Es zittern die morschen Knochen
T:Es zittern die morschen Knochen
T:Hans Baumann
%%score { ( 1 3 ) | 2 }
L:1/8
Q:1/4=118
M:4/4
K:G
V:1 treble nm="Piano" snm="Pno."
V:3 treble 
V:2 bass 
V:1
 z [Dd]/[Dd]/ | [Dd]3 [Dd]/[Dd]/ [Dd]3 [Dd]/[Dd]/ | %2
 (3[DFAd][DEGd][DFAd] (3[DGBd][DFAd][DEGd] (3[Dd][Dd][Dd] [Dd][Dd]/[Dd]/ | %3
 [Dd]3 [Dd]/[Dd]/ [Dd]3 [Dd]/[Dd]/ | %4
 (3[DGBd][DFAd][DGBd] (3[DAcd][DGBd][DFAd] (3[Dd][Dd][Dd] [Dd][Dd]/[Dd]/ | dc/B/ cB/A/ B4 | %6
 ed/c/ dc/B/ c4 | [DGB]2 [CDAd]>[B,DGd] [CDA]2 [B,DGd]>[A,DFd] | [B,G]4 z2 D2 || %9
 [G,B,E]2 D>D [F,CE]2 D2 | [DGB]4 [B,DG]3 [B,DG] | %11
 [CDFA][Dd]/[Dd]/ [Dd][B,DG] [CDFA][Dd]/[Dd]/ [Dd][CDFA] | [DGB]>[CDA] [B,DG]>[DGB] [DFA]2 D2 | %13
 [G,B,E]2 D>D [F,CE]2 D2 | [DGB]4 [B,DG]3 [B,DG] | %15
 [CDFA][Dd]/[Dd]/ [Dd][B,DG] [CDFA][Dd]/[Dd]/ [Dd][DFB] | [B,DG]6 D2 | %17
 [DFA]3 [DEG]/[DFA]/ [DGB]3 [DFA]/[DEG]/ | [DFA]6 [Dd]/[Dd]/[Dd]/[Dd]/ | %19
 [DGBd]3 [DFA]/[DGB]/ [DAc]3 [DGB]/[DFA]/ | [DGB]6 [Dd]/[Dd]/[Dd]/[Dd]/ | dc/B/ cB/A/ [GB]4 | %22
 dc/B/ cB/A/ [GB]4 | [DFA]A/A/ [FAd]A/A/ [EA^c]A/A/ [GAe]A/A/ | [FAd]6 D2 || %25
 [G,B,E]2 [G,B,D]>[G,B,D] [F,CE]2 [F,CD]2 | [DGB]4 [B,DG]3 [B,DG] | %27
 [CEA]2 [CEA]>[CEA] [DFB]2 [CFA]2 | [B,DG]2 (3[DG][B,D][DGB] [B,DG]2 D2 | %29
 [G,B,E]2 [G,B,D]>[G,B,D] [F,CE]2 [F,CD]2 | [DGB]4 [B,DG]3 [B,DG] | %31
 [CEA]2 [CEA]>[CEA] [DFB]2 [CFA]2 | [B,DG]6 G2 || [EGc]2 [Gce]2 [Gce]2 [Gce][Gce] | %34
 [GBd]4 [DGB]3 G | [EGc]2 [EGc]>[EGc] [Gce]2 [EGc]2 | [DGB]2 z2 z2 D2 | %37
 [G,B,E]2 [G,B,D]2 [F,CE]2 [F,CD]2 | [DGB]4 [B,DG]3 [B,DG] | [CEA]2 [CEA]>[CEA] [DFB]2 [CFA]2 | %40
 [B,DG]6 G2 || [EGc]2 [Gce]2 [Gce]2 [Gce][Gce] | [GBd]4 [DGB]3 G | %43
 [EGc]2 [EGc]>[EGc] [Gce]2 [EGc]2 | [DGB]2 z2 z2 D2 | [G,B,E]2 [G,B,D]2 [F,CE]2 [F,CD]2 | %46
 [DGB]4 [B,DG]3 [B,DG] | [CEA]2 [CEA]>[CEA] [DFB]2 [CFA]2 | [B,DG]6 [D=FG]2 || %49
[K:C] [EGc]4 [B,DG]3 [B,DG] | [CEA]2 G>F [G,CE]2 [^G,B,E]2 | [CEA]4 [G,B,E]3 [G,B,E] | %52
 [A,CF]2 E>D [E,G,C]2 [G,B,E]2 | [A,CF]2 E>D [G,CE]2 [B,EG]2 | [CEA]2 G>^F [B,EG]2 [EGc]2 | %55
 [DGB]4 [CD^FA]4 | [B,DG]6 [DFG]2 | [EGc]4 [B,DG]3 [B,DG] | [CEA]2 G>F [G,CE]2 [^G,B,E]2 | %59
 [CEA]4 [G,B,E]3 [G,B,E] | [A,CF]2 E>D [E,A,C]2 [G,B,E]2 | [A,CF]2 E>D [G,CE]2 [B,EG]2 | %62
 [CEA]2 G>^F [B,EG]2 [EGc]2 | [EGc]4 [FGB]4 | [EGc]6 [CEG]2 || %65
[K:G] [DFA]3 [DEG]/[DFA]/ [DGB]3 [DFA]/[DEG]/ | [DFA]6 [Dd]/[Dd]/[Dd]/[Dd]/ | %67
 [DGBd]3 [DFA]/[DGB]/ [DAc]3 [DGB]/[DFA]/ | [DGB]6 [Dd]/[Dd]/[Dd]/[Dd]/ | dc/B/ cB/A/ B2 g=f | %70
 ed/c/ dc/B/ [Ac]4 | [DGB]2- (3[DGB][DG][DGB] [CDFA]2- (3[CDFA][CDF][CDFA] | %72
 (3[B,DG][A,DF][B,DG] (3[DB][CDA][B,DG] [A,DF]2- (3[A,DF][A,^CE][A,EG] | %73
 [DFA]A/A/ [FAd]A/A/ [EA^c]A/A/ [GAe]A/A/ | [FAd]6 D2 || %75
 [G,B,E]2 [G,B,D]>[G,B,D] [F,CE]2 [F,CD][F,CD] | [DGB]4 [B,DG]3 [B,DG] | %77
 [CEA]2 [CEA]>[CEA] [DFB]2 [CFA][CFA] | [B,DG]2 (3[DG][B,D][DGB] [B,DG]2 D2 | %79
 [G,B,E]2 [G,B,D]>[G,B,D] [F,CE]2 [F,CD][F,CD] | [DGB]4 [B,DG]3 [B,DG] | %81
 [CEA]2 [CEA]>[CEA] [DFB]2 [CFA]2 | [B,DG]6 G2 | [EGc]2 [Gce]2 [Gce]2 [Gce][Gce] | %84
 [GBd]4 [DGB]3 G | [EGc]2 [EGc]>[EGc] [Gce]2 [EGc]2 | [DGB]2 z2 z2 D2 | %87
 [G,B,E]2 [G,B,D]2 [F,CE]2 [F,CD]2 | [DGB]4 [B,DG]3 [B,DG] | [CEA]2 [CEA]>[CEA] [DFB]2 [CFA]2 | %90
 [B,DG]6 G2 || [EGc]2 [Gce]2 [Gce]2 [Gce][Gce] | [GBd]4 [DGB]3 G | %93
 [EGc]2 [EGc]>[EGc] [Gce]2 [EGc]2 | [DGB]2 z2 z2 D2 | [G,B,E]2 [G,B,D]2 [F,CE]2 [F,CD]2 | %96
 [DGB]4 [B,DG]3 [B,DG] | [CEA]2 [CEA]>[CEA] [DFB]2 [CFA]2 | %98
 (3[B,DG][B,DG][DGB] (3[GBd][DGB][GBd] (3[ceg][Gce][ceg] (3[ceg][Gce][ceg] | %99
 [Bdgb]2 [B,DG]2 [B,DG]2 z2 |] %100
V:2
 z2 | z8 | [D,,D,]2 [D,,D,]2 [D,,D,]4 | z8 | [G,,G,]2 [D,,D,]2 [G,,G,]4 | [F,,F,]4 [G,,G,]4 | %6
 [^G,,^G,]4 [A,,A,]4 | D,4 D,,4 | [G,,G,]2 [D,G,B,]2 [D,G,B,]2 D,2 || [G,,G,]2 z2 [G,,F,]2 z2 | %10
 [G,,G,]2 [B,,B,]2 [D,D]2 [G,,G,]2 | [D,,D,]2 z [G,,G,] [D,,D,]2 z [D,,D,] | %12
 [G,,G,]2 [G,,G,]2 [D,,D,]2 D,2 | [G,,G,]2 z2 [G,,F,]2 z2 | [G,,G,]2 [B,,B,]2 [D,D]2 [G,,G,]2 | %15
 [D,,D,]2 z [G,,G,] [D,,D,]2 z [D,,D,] | [G,,G,]2 [D,,D,]2 G,,2 D,2 | [D,,D,]4 [D,,D,]4 | %18
 [D,,D,][E,,E,][F,,F,][G,,G,] [A,,A,][F,,F,][E,,E,][D,,D,] | [G,,G,]4 [D,,D,]4 | %20
 [G,,G,][A,,A,][B,,B,][C,C] [D,D][B,,B,][A,,A,][G,,G,] | [F,,F,]2 [F,,F,]2 [G,,G,]4 | %22
 [F,,F,]2 [F,,F,]2 [G,,G,]4 | [F,,F,]2 [D,,D,]2 [A,,,A,,]2 [A,,A,]2 | [D,,D,]6 D,2 || %25
 [G,,G,]2 z2 [G,,F,]2 z2 | [G,,G,]2 [B,,B,]2 [D,D]2 [G,,G,]2 | [C,C]2 [A,,A,]2 [D,D]2 [D,,D,]2 | %28
 [G,,G,]2 [D,,D,]2 [G,,G,]2 D,2 | [G,,G,]2 z2 [G,,F,]2 z2 | [G,,G,]2 [B,,B,]2 [D,D]2 [G,,G,]2 | %31
 [C,C]2 [A,,A,]2 [D,D]2 [D,,D,]2 | [G,,G,]2 [D,,D,]2 [G,,G,]2 [G,,G,]2 || %33
 [E,,E,]2 [C,,C,]2 [E,,E,]2 [F,,F,]2 | [G,,G,]2 [D,,D,]2 [G,,G,]2 [B,,B,]2 | %35
 [C,C]2 [C,,C,]2 [C,,C,][D,,D,][E,,E,][F,,F,] | [G,,G,]2 [D,,D,]2 G,,2 D,2 | %37
 [G,,G,]2 z2 [G,,F,]2 z2 | [G,,G,]2 [B,,B,]2 [D,D]2 [G,,G,]2 | [C,C]2 [A,,A,]2 [D,D]2 [D,,D,]2 | %40
 [G,,G,]2 [D,,D,]2 [G,,,G,,]2 [G,,G,]2 || [E,,E,]2 [C,,C,]2 [E,,E,]2 [F,,F,]2 | %42
 [G,,G,]2 [D,,D,]2 [G,,G,]2 [B,,B,]2 | [C,C]2 [C,,C,]2 [C,,C,][D,,D,][E,,E,][F,,F,] | %44
 [G,,G,]2 [D,,D,]2 G,,2 D,2 | [G,,G,]2 z2 [G,,F,]2 z2 | [G,,G,]2 [B,,B,]2 [D,D]2 [G,,G,]2 | %47
 [C,C]2 [A,,A,]2 [D,D]2 [D,,D,]2 | [G,,G,]2 [D,,D,]2 [G,,,G,,]2 [G,,G,]2 || %49
[K:C] [C,,C,]4 [B,,,B,,]4 | [A,,,A,,]2 [B,,,B,,]2 [C,,C,]2 [B,,,B,,]2 | [A,,,A,,]4 [G,,,G,,]4 | %52
 [F,,,F,,]2 [G,,,G,,]2 [C,,C,]2 [G,,,G,,]2 | [A,,,A,,]2 [B,,,B,,]2 [C,,C,]2 [B,,,B,,]2 | %54
 [C,,C,]2 [D,,D,]2 [E,,E,]2 [C,,C,]2 | [D,,D,]4 [D,,D,]4 | %56
 [G,,,G,,]2 [D,,D,]2 [G,,G,][F,,F,][E,,E,][D,,D,] | [C,,C,]4 [B,,,B,,]4 | %58
 [A,,,A,,]2 [B,,,B,,]2 [C,,C,]2 [B,,,B,,]2 | [A,,,A,,]4 [G,,,G,,]4 | %60
 [F,,,F,,]2 [G,,,G,,]2 [A,,,A,,]2 [G,,,G,,]2 | [A,,,A,,]2 [B,,,B,,]2 [C,,C,]2 [B,,,B,,]2 | %62
 [C,,C,]2 [D,,D,]2 [E,,E,]2 [A,,,A,,]2 | [G,,,G,,]4 [G,,,G,,]4 | %64
 [C,,C,]2 [G,,G,]2 [C,,C,]2 [C,,C,]2 ||[K:G] [D,,D,]4 [D,,D,]4 | %66
 [D,,D,][E,,E,][F,,F,][G,,G,] [A,,A,][F,,F,][E,,E,][D,,D,] | [G,,G,]4 [D,,D,]4 | %68
 [G,,G,][A,,A,][B,,B,][C,C] [D,D][B,,B,][A,,A,][G,,G,] | [F,,F,]4 [G,,G,]4 | [^G,,^G,]4 [A,,A,]4 | %71
 [D,,D,]8 | [D,,D,]8 | [D,,D,]2 [F,,F,]2 [A,,A,]2 [A,,,A,,]2 | [D,,D,]6 D,2 || %75
 [G,,G,]2 z2 [G,,F,]2 z2 | [G,,G,]2 [B,,B,]2 [D,D]2 [G,,G,]2 | [C,C]2 [A,,A,]2 [D,D]2 [D,,D,]2 | %78
 [G,,G,]2 [D,,D,]2 [G,,G,]2 D,2 | [G,,G,]2 z2 [G,,F,]2 z2 | [G,,G,]2 [B,,B,]2 [D,D]2 [G,,G,]2 | %81
 [C,C]2 [A,,A,]2 [D,D]2 [D,,D,]2 | [G,,G,]2 [D,,D,]2 [G,,G,]2 [G,,G,]2 | %83
 [E,,E,]2 [C,,C,]2 [E,,E,]2 [F,,F,]2 | [G,,G,]2 [D,,D,]2 [G,,G,]2 [B,,B,]2 | %85
 [C,C]2 [C,,C,]2 [C,,C,][D,,D,][E,,E,][F,,F,] | [G,,G,]2 [D,,D,]2 G,,2 D,2 | %87
 [G,,G,]2 z2 [G,,F,]2 z2 | [G,,G,]2 [B,,B,]2 [D,D]2 [G,,G,]2 | [C,C]2 [A,,A,]2 [D,D]2 [D,,D,]2 | %90
 [G,,G,]2 [D,,D,]2 [G,,,G,,]2 [G,,G,]2 || [E,,E,]2 [C,,C,]2 [E,,E,]2 [F,,F,]2 | %92
 [G,,G,]2 [D,,D,]2 [G,,G,]2 [B,,B,]2 | [C,C]2 [C,,C,]2 [C,,C,][D,,D,][E,,E,][F,,F,] | %94
 [G,,G,]2 [D,,D,]2 G,,2 D,2 | [G,,G,]2 z2 [G,,F,]2 z2 | [G,,G,]2 [B,,B,]2 [D,D]2 [G,,G,]2 | %97
 [C,C]2 [A,,A,]2 [D,D]2 [D,,D,]2 | [G,,G,]2 z2 [C,,C,]2 [C,,C,]2 | %99
 [G,,G,]2 [G,,D,G,]2 [G,,D,G,]2 z2 |] %100
V:3
 x2 | x8 | x4 [FA]4 | x8 | x4 [GB]4 | [DA]2 [_EA]2 [DG]4 | [EB]2 [=FB]2 [EA]4 | x8 | x8 || x8 | %10
 x8 | x8 | x8 | x8 | x8 | x8 | x8 | x8 | x8 | x8 | x8 | [DA]2 [_EA]2 z2 =E_E | %22
 [DA]2 [_EA]2 z2 =E^D | x8 | x A/A/ FA D2 x2 || x8 | x8 | x8 | x8 | x8 | x8 | x8 | x8 || x8 | x8 | %35
 x8 | x8 | x8 | x8 | x8 | x8 || x8 | x8 | x8 | x8 | x8 | x8 | x8 | x8 ||[K:C] x8 | x2 [B,D]2 x4 | %51
 x8 | x2 [G,B,]2 x4 | x2 [G,B,]2 x4 | x2 [B,D]2 x4 | x8 | x8 | x8 | x2 [B,D]2 x4 | x8 | %60
 x2 [G,B,]2 x4 | x2 [G,B,]2 x4 | x2 [B,D]2 x4 | x8 | x8 ||[K:G] x8 | x8 | x8 | x8 | %69
 [DA]2 [_EA]2 [DG]4 | [EB]2 [^EB]2 =E4 | x8 | x8 | x8 | x A/A/ FA D2 x2 || x8 | x8 | x8 | x8 | x8 | %80
 x8 | x8 | x8 | x8 | x8 | x8 | x8 | x8 | x8 | x8 | x8 || x8 | x8 | x8 | x8 | x8 | x8 | x8 | x8 | %99
 x8 |] %100

